X:9
T:G\aangl\aat fr\aan \"Appelbo
C:efter \"Artbergs Kalle
O:Dalarna
%A:Dalarna
%O:Sweden
R:snoa, g\aangl\aat
Z:John Chambers <jc@trillian.mit.edu>
N:modified by Bob Wyttenbach to match Buffalo Gap tunebook
M:2/4
L:1/16
%Q:1/4=76
K:A %Transposed from G
P:A
uE2 | "G"A2(AE) A2c2 | e6(cd) | e2(ec) e2(ef) | "Am"d2(dc) B2(Bc) |
 "D7"d2(de) f2(ed) | "G"(cd)(cB) A2(GA) | "D7"(Bc)(BG) E2(FG) | "G"A6 :|
P:B
(uce) | "G"a2a2 a2(gf) | "D7"g2g2 g2(ag) | "C"f2f2 (fa)(gf) | "G"f2(e^d) e2(=dc) |
 "D7"d2(dc) B2(AB) | "G"(cd)(cB) A2(GA) | "D7"(Bc)(BG) E2(FG) | "G"A6 :|
